assets/icons/icon_power.svg

<svg width="30" height="30" viewBox="0 0 30 30" fill="none" xmlns="http://www.w3.org/2000/svg">
<g clip-path="url(#clip0_58_3417)">
<path d="M7.5 16.5588L18.2308 3.5L17.2478 11.1676L17.0656 12.5898L18.3507 12.9615L21.8182 13.964L11.0876 27.0227L12.0704 19.3551L12.2526 17.933L10.9675 17.5614L7.5 16.5588Z" stroke="white" stroke-width="1.8"/>
</g>
<defs>
<clipPath id="clip0_58_3417">
<rect width="30" height="30" fill="white"/>
</clipPath>
</defs>
</svg>

<svg xmlns="http://www.w3.org/2000/svg" width="30" height="30" fill="none" viewBox="0 0 30 30"><g clip-path="url(#a)"><path stroke="#fff" stroke-width="1.8" d="M7.5 16.559 18.23 3.5l-.982 7.668-.182 1.422 1.285.371 3.467 1.003-10.73 13.059.982-7.668.183-1.422-1.286-.372z"/></g><defs><clipPath id="a"><path fill="#fff" d="M0 0h30v30H0z"/></clipPath></defs></svg>
